!!!OTL: Weile renmin bakudan
!!!ARE: Asia, China,ÿZhejiang Taishun
!! III, 620, 2)
!!!SCT: C1902
!!!YEM: Copyright 1995, estate of Helmut Schaffrath.
**kern
*ICvox
*Ivox
*M3/4
*k[f#c#g#]
*A:
{8ee
8ee
8cc#
4.b
=1
8a
16ee
16cc#
2b}
=2
{8cc#
16b
16cc#
8cc#
4.a
=3
8b
8f#
2e}
=4
{16f#
16b
8b
2a
=5
8f#
8b
8a
8f#
4r}
=6
{8f#
8b
8f#
4.b
=7
8f#
8a
2e}
==
!!!AGN: Xiaodiao
!!!AMT: simple triple
!!!AIN: vox
!!!EED: Helmut Schaffrath
!!!EEV: 1.0
*-
